X: 68
P: Longways for as many as will
M: C|
L: 1/8
K: F
V: 1
|:\
c2 f4 a2 | g2f2 e4 | f2ed c2d2- | d2dB A2F2 |\
c2 f4 a2 | g2f2 e2g2- | g2fe d2c2 | G2=B2 c4 :|\
|:\
f2ed ^c2d2 | A2^c2 d4 |\
g4 g2fe | defg e2c2 | f6 _ed | cd_ec d2B2 |\
b2 a4 g2- | g2 f4 e2 | efg2 c2f2 | f3e f4 :|
V: 2 clef=bass middle=d
|:\
z2f2 a2f2 | c'2f2 c2a2 | d'2c'b a2b2 | e4 f4 |\
z2f2 a2f2 | c'2f2 c2e2 | f2d2 g2a2 | g4 c4 :|
|:\
c4 d2e2 | b2ag f2d2 |
g4 a2b2 | a4 d2f2 |\
e2d2 e2c2 | =B4 c2c'2 | a2fg a2b2 | a4 b4 |\
g2a2 b4 | =b4 c'2c2 | g2b2 a2f2 | c'2c2 f4 :|

